X: 90
T: Ankara`nın Yolları
C: (Anonim)
O: Turkey
F: http://compmusic.upf.edu/node/140
N: acemkurdi--turku--duyek--ankaranin_yollari--
N: makam= acemkurdi
N: form= turku
N: usul= duyek = 8/4
M: 8/4
L: 1/16
K: C _B   
Q: 1/4=180
%%MIDI tuningsystem comma53
z2 ff f2 ge e2 ee e2 fd  | de dd d2 ec c2 fe e4  | 
w:   |   | 
z2 ee e2 fd de dd d2 ec  | c2 cc c2 dc Bc BA A4  | 
w:   |   | 
z2 fg ag a2 z2 fg ag a2  | z2 ga a2 a2 a2 aa a2 ag  | 
w:   |   | 
gg3 g2 ag f2 ga a4  | z2 ga a2 a2 a2 aa a2 ag  | \
w:   |   | 
gg3 g2 ag f2 ga a4  | 
w:   | 
z2 ef f2 ge e2 ee e2 fd  | de dd d2 ec c2 fe e4  | 
w:   |   | 
z2 ee e2 fd de dd d2 ec  | c2 cc c2 dc Bc BA A4  | 
w:   |   | 
z2 ff f2 ge e2 ee e2 fd  | de dd d2 ec c2 fe e4  | 
w:   |   | 
z2 ee e2 fd de dd d2 ec  | c2 cc c2 dc Bc BA A4  | 
w:   |   | 
z2 ff f2 ge e2 ee e2 fd  | de dd d2 ec c2 fe e4  | 
w:   |   | 
z2 ee e2 fd de dd d2 ec  | c2 cc c2 dc Bc BA A4  | 
w:   |   | 
|


